!!!AGN: Motet
!!!SCT: Ory
!!!voices: 3
!!!COM: Anonymous
!!!OTL: Nigra sum
**kern	**text	**kern	**text	**kern	**text
*part3	*part3	*part2	*part2	*part1	*part1
*staff3	*staff3	*staff2	*staff2	*staff1	*staff1
*I"Bassus	*	*I"Tenor	*	*I"Superius	*
*I'B	*	*I'T	*	*I'S	*
*clefF4	*	*clefG2	*	*clefG2	*
*k[]	*	*k[]	*	*k[]	*
*C:	*	*C:	*	*C:	*
*M2/1	*	*M2/1	*	*M2/1	*
*met(C|)	*	*met(C|)	*	*met(C|)	*
!!section: Prima pars: Nigra sum
!!!OMD: Prima pars: Nigra sum
0r	.	0r	.	1a	Ni-
.	.	.	.	1d	-gra
=1	=1	=1	=1	=1	=1
0r	.	1r	.	1a	sum
.	.	1a	Ni-	1r	.
=2	=2	=2	=2	=2	=2
0r	.	1d	-gra	2r	.
.	.	.	.	2a	sed
.	.	1a	sum	1cc	sum
=3	=3	=3	=3	=3	=3
0r	.	1r	.	1b	for-
.	.	2r	.	2a	-mo-
.	.	2a	sed	[2cc	.
=4	=4	=4	=4	=4	=4
1A	Ni-	1cc	sum	4cc]	.
.	.	.	.	4b	.
.	.	.	.	1a	.
1E	-gra	1b	for-	.	.
.	.	.	.	2g#i	.
=5	=5	=5	=5	=5	=5
1A	sum	2a	-mo-	1a	-sa,
.	.	1cc	-sa,	.	.
2r	.	.	.	2r	.
2A	sed	2cc	fi-	2a	fi-
=6	=6	=6	=6	=6	=6
2E	sum	2b	-li-	2g	-li-
2.F	for-	1a	-a	2a	-a
.	.	.	.	1cc	Hie-
4G	.	.	.	.	.
4A	.	4g	.	.	.
4B	.	4f	.	.	.
=7	=7	=7	=7	=7	=7
2c	.	4e	.	1cc	-ru-
.	.	4d	.	.	.
2F	.	1a	Hie-	.	.
2G	.	.	.	1b	-sa-
2G	-mo-	[2g	-ru-	.	.
=8	=8	=8	=8	=8	=8
1D	-sa,	2g]	.	1a	-lem,
.	.	2f#i	-sa-	.	.
2r	.	1g	-lem,	2r	.
2G	sed	.	.	2g	sed
=9	=9	=9	=9	=9	=9
2F	sum	2r	.	2a	sum
1G	for-	2g	sed	1b	for-
.	.	2g	sum	.	.
4F	.	2g	for-	4a	.
4E	.	.	.	4g	.
=10	=10	=10	=10	=10	=10
2D	.	4f	.	4a	.
.	.	4e	.	4g	.
2A	-mo-	4d	.	1cc	.
.	.	4c	.	.	.
1G	-sa,	1d	-mo-	.	.
.	.	.	.	2b	-mo-
=11	=11	=11	=11	=11	=11
2r	.	1c	-sa,	1cc	-sa,
2.c	si-	.	.	.	.
.	.	1r	.	1g	si-
4B	.	.	.	.	.
4A	.	.	.	.	.
4G	.	.	.	.	.
=12	=12	=12	=12	=12	=12
2F	.	1c	si-	1a	-cut
2A	-cut	.	.	.	.
2.G	ta-	1d	-cut	[1b	ta-
4F	.	.	.	.	.
=13	=13	=13	=13	=13	=13
2E	-ber-	1.e	ta-	2b]	.
2.c	-na-	.	.	2g	-ber-
.	.	.	.	2g	-na-
4B	.	.	.	.	.
4A	.	2c	-ber-	2g	-cu-
4G	.	.	.	.	.
=14	=14	=14	=14	=14	=14
2A	-cu-	2c	-na-	2.cc	-la
2A	-la	2c	-cu-	.	.
.	.	.	.	4b	.
2.F	Ce-	2.f	.	4a	.
.	.	.	.	4g	.
.	.	.	.	[2cc	.
4G	.	8eL	.	.	.
.	.	8dJ	.	.	.
=15	=15	=15	=15	=15	=15
2A	.	2c	.	4cc]	.
.	.	.	.	4b	.
2D	.	2d	-la	1a	.
1E	.	1B	Ce-	.	.
.	.	.	.	2g#i	Ce-
=16	=16	=16	=16	=16	=16
1F	-dar,	0A	-dar,	0a	-dar,
1D	.	.	.	.	.
=17	=17	=17	=17	=17	=17
0A	si	1r	.	1r	.
.	.	1a	si	1cc	si
=18	=18	=18	=18	=18	=18
1A	ni-	1a	ni-	1cc	ni-
1E	-gra	1g	-gra	1b	-gra
=19	=19	=19	=19	=19	=19
1A	sum	2a	.	1a	sum
.	.	2.cc	sum	.	.
2r	.	.	.	2r	.
.	.	4b	.	.	.
[2A	sol	4a	.	[2cc	sol
.	.	4g	.	.	.
=20	=20	=20	=20	=20	=20
2A]	.	2a	sol	2cc]	.
2E	de-	2g	de-	2b	de-
2F	-co-	2f	-co-	2a	-co-
2C	-lo-	2e	-lo-	[2g	-lo-
=21	=21	=21	=21	=21	=21
1D	-ra-	1f	-ra-	4g]	.
.	.	.	.	4f	.
.	.	.	.	1f	-ra-
1C	.	1g	-vit	.	.
.	.	.	.	2e	-vit
=22	=22	=22	=22	=22	=22
2F	.	1f	me,	0f	me,
2D	.	.	.	.	.
2D	.	2r	.	.	.
2F	-vit	2a	sed	.	.
=23	=23	=23	=23	=23	=23
2E	me,	2g	sum	1r	.
2D	.	1f	for-	.	.
1r	.	.	.	2r	.
.	.	4e	.	2a	sed
.	.	4d	.	.	.
=24	=24	=24	=24	=24	=24
2r	.	2e	-mo-	2g	sum
2D	sed	2d	-sa,	1f	for-
2D	sum	2r	.	.	.
2D	for-	2d	si-	4e	.
.	.	.	.	4d	.
=25	=25	=25	=25	=25	=25
2A	-mo-	2c	-cut	2e	-mo-
2D	-sa,	1f	pel-	2d	-sa,
2r	.	.	.	2r	.
2D	si-	4e	.	2d	si-
.	.	4d	.	.	.
=26	=26	=26	=26	=26	=26
2A	-cut	2e	.	2c	-cut
4D	pel-	2d	-les	1f	pel-
4E	.	.	.	.	.
4F	-les	1a	Sa-	.	.
4G	.	.	.	.	.
4A	Sa-	.	.	4e	.
4B	.	.	.	4d	.
=27	=27	=27	=27	=27	=27
2c	-lo-	2g	-lo-	2e	.
2.d	-mo-	1f	-mo-	2d	-les
.	.	.	.	2.a	Sa-
4e	.	.	.	.	.
2f	-nis,	4e	.	.	.
.	.	4d	.	8gL	.
.	.	.	.	8fJ	.
=28	=28	=28	=28	=28	=28
2r	.	2e	.	2g	.
2.F	Sa-	2c	.	2a	-lo-
.	.	2d	.	2.f	-mo-
4E	.	.	.	.	.
4D	.	[2f	.	.	.
4C	.	.	.	4e	.
=29	=29	=29	=29	=29	=29
1D	-lo-	4f]	.	2d	.
.	.	4e	.	.	.
.	.	1d	.	2f	.
1A	-mo-	.	.	1e	.
.	.	2c#i	.	.	.
=30	=30	=30	=30	=30	=30
1D	-nis.	1d	-nis.	1d	-nis.
1r	.	1r	.	1r	.
=31	=31	=31	=31	=31	=31
0D	No-	0f	No-	0a	No-
=32	=32	=32	=32	=32	=32
1F	-li-	1f	-li-	1a	-li-
1F	-te	1f	-te	1a	-te
=33	=33	=33	=33	=33	=33
1C	me	1e	me	1g	me
1D	con-	2r	.	1f	.
.	.	[2f	con-	.	.
=34	=34	=34	=34	=34	=34
1D	-si-	4f]	.	1a	con
.	.	4e	.	.	.
.	.	4d	.	.	.
.	.	4c	.	.	.
2D	-de-	2d	.	[1a	si-
[2F	-ra-	2c	-si-	.	.
=35	=35	=35	=35	=35	=35
4F]	.	2f	-de-	2a]	.
4E	.	.	.	.	.
2C	.	2.e	-ra-	2g	-de-
1D	-re	.	.	1f	-ra-
.	.	4d	.	.	.
.	.	[2d	-re	.	.
=36	=36	=36	=36	=36	=36
1A	.	2d]	.	1e	-re
.	.	2c	quod	.	.
1D	.	2d	fus-	2r	.
.	.	[2f	.	[2a	quod
=37	=37	=37	=37	=37	=37
1r	.	4f]	.	4a]	.
.	.	4e	.	4b	.
.	.	4d	.	4cc	.
.	.	4c	.	4a	.
2r	.	2d	.	2b	.
2A	quod	2e	.	[2cc	fus-
=38	=38	=38	=38	=38	=38
2A	fus-	2A	.	4cc]	.
.	.	.	.	4b	.
2A	-ca	2c	.	1a	.
1E	sim,	1B	-ca	.	.
.	.	.	.	2g#i	.
=39	=39	=39	=39	=39	=39
2r	.	1A	sim,	2a	-ca
1A	qui-	.	.	2f	.
.	.	1r	.	2.e	.
2G	-a	.	.	.	.
.	.	.	.	4d	.
=40	=40	=40	=40	=40	=40
2A	de-	1a	qui-	1c	sim,
2c	-co-	.	.	.	.
2B	-lo-	2g	-a	1r	.
[2c	-ra-	[2a	sol	.	.
=41	=41	=41	=41	=41	=41
4c]	.	2a]	.	1a	qui-
4B	.	.	.	.	.
2A	-vit	2cc	de-	.	.
2E	me	2b	-co-	2g	-a
2A	sol,	[2cc	-lo-	[2a	sol
=42	=42	=42	=42	=42	=42
2r	.	4cc]	.	2a]	.
.	.	4b	.	.	.
2A	de-	2a	.	2cc	de-
2E	-co-	2g	.	2b	-co-
[2A	-lo-	2a	.	[2cc	-lo-
=43	=43	=43	=43	=43	=43
4A]	.	2e	-ra-	4cc]	.
4G	.	.	.	4b	.
2A	.	2cc	-vit	1a	-ra-
1E	-ra-	1b	me,	.	.
.	.	.	.	2g#i	-vit
=44	=44	=44	=44	=44	=44
0A	-vit	2r	.	1a	me,
.	.	1a	qui-	.	.
.	.	.	.	2r	.
.	.	2a	-a	[2a	qui-
=45	=45	=45	=45	=45	=45
0D	me.	2f	sol	2a]	.
.	.	2.a	de-	2a	-a
.	.	.	.	2f	sol
.	.	4g	.	.	.
.	.	2f	.	2a	de-
=46	=46	=46	=46	=46	=46
1r	.	2e	-co-	2g	-co-
.	.	2d	-lo-	2f	-lo-
1A	Ni-	2d	-ra-	1e	-ra-
.	.	2c#i	-vit	.	.
=47	=47	=47	=47	=47	=47
1D	-gra	1d	me.	1d	-vit
1A	sum	1r	.	1c	me.
=48	=48	=48	=48	=48	=48
0r	.	1a	Ni-	1r	.
.	.	1d	-gra	1a	Ni-
=49	=49	=49	=49	=49	=49
0r	.	1a	sum	1d	-gra
.	.	2r	.	1a	sum
.	.	2a	sed	.	.
=50	=50	=50	=50	=50	=50
1r	.	4cc	.	2r	.
.	.	4b	.	.	.
.	.	4a	.	2a	sed
.	.	4g	.	.	.
2r	.	2a	.	4cc	sum
.	.	.	.	4b	.
2A	sed	[2cc	for-	4a	.
.	.	.	.	4g	.
=51	=51	=51	=51	=51	=51
2A	sum	4cc]	.	2a	for-
.	.	4b	.	.	.
2A	for-	1a	.	2cc	-mo-
1E	-mo-	.	.	1b	-sa,
.	.	2g#i	-mo-	.	.
=52	=52	=52	=52	=52	=52
1A	-sa,	1a	-sa,	2a	fi-
.	.	.	.	1cc	-li-
2r	.	2r	.	.	.
2A	fi-	2a	fi-	2cc	-a
=53	=53	=53	=53	=53	=53
2E	-li-	2g	-li-	2b	Hie-
2.F	-a	2a	-a	1a	-ru-
.	.	1cc	Hie-	.	.
4G	.	.	.	.	.
4A	.	.	.	4g	.
4B	.	.	.	4f	.
=54	=54	=54	=54	=54	=54
2c	Hie-	1cc	-ru-	4e	.
.	.	.	.	4d	.
2F	-ru-	.	.	1a	.
1G	-sa-	1b	-sa-	.	.
.	.	.	.	[2g	-sa-
=55	=55	=55	=55	=55	=55
1D	-lem,	1a	-lem,	2g]	.
.	.	.	.	2f#i	.
2G	sed	2r	.	1g	-lem,
2E	sum	2g	sed	.	.
=56	=56	=56	=56	=56	=56
1F	for-	4a	.	2r	.
.	.	4b	.	.	.
.	.	4cc	.	2a	sed
.	.	4a	.	.	.
2E	-mo-	2b	sum	2g	sum
[2A	.	[2cc	for-	2a	for-
=57	=57	=57	=57	=57	=57
4A]	.	4cc]	.	1cc	-mo-
4G	.	4b	.	.	.
2A	-sa,	1a	-mo-	.	.
1E	fi-	.	.	1b	-sa
.	.	2g	.	.	.
=58	=58	=58	=58	=58	=58
2.A	-li-	2a	-sa,	2r	.
.	.	1cc	fi-	1a	fi-
4A	.	.	.	.	.
2A	-a	.	.	.	.
2B	Hie-	2b	-li-	2g	-li-
=59	=59	=59	=59	=59	=59
1c	-ru-	2a	-a	2f	-a
.	.	2g	Hie-	2e	Hie-
1d	-sa-	2f	-ru-	2e	-ru-
.	.	2f	-sa-	2d	-sa-
=60	=60	=60	=60	=60	=60
0A	-lem,	0e	-lem,	1e	-lem,
.	.	.	.	[1c	Hie-
=61	=61	=61	=61	=61	=61
1r	.	1r	.	2c]	.
.	.	.	.	2d	-ru-
1A	Hie-	1c	Hie-	2e	-sa-
.	.	.	.	[2f	.
=62	=62	=62	=62	=62	=62
1D	-ru-	1d	-ru-	2f]	.
.	.	.	.	2e	.
1D	-sa-	1f	-sa-	1d	.
=63	=63	=63	=63	=63	=63
00Al	-lem.	00el	-lem.	00cl	-lem.
==	==	==	==	==	==
*-	*-	*-	*-	*-	*-
!!!system-decoration: [*]
!!!RDF**kern: i = editorial accidental
!!!RDF**kern: l = terminal long
!!!ENC: Benjamin Ory
!!!END: 2023/3/9
!!!EED: Benjamin Ory
!!!EEV: 2023/03/09
!!!YEC: Copyright 2023 Benjamin Ory, All Rights Reserved
!!!ONB: Translated from MusicXML on 2023/03/09